X: 1939
T: Verse Ol Meh
C: Ahmet Avni Konuk
O: Turkey
F: http://compmusic.upf.edu/node/140
N: segah--kupe--darb--verse--ahmet_avni_konuk
N: makam= segah
N: form= kupe
N: usul= darb = 6/4
M: 6/4
L: 1/16
K: C _1/4B _1/4e ^f 
Q: 1/4=84
%%MIDI tuningsystem comma53
G4 B4 B3^3/4A B2c2 B2c2 _2/4B2=A2  | \
w:  Ver *  se   | 
G4 G2^3/4A2 B3A B2c2 B2A2 B4  | A4 B4 c4 B4 c4 d4  | 
w:  ol  *  *  meh   |  ben *  de_  | 
dcde d2c2 B12 z4  | B4 f4 f12 z4  | e4 f4 g2f2 g2e2 d4 {e}d2c2  | 
w:  i  *  *  *  *  *  gam  |  hâ *  rı  |  na  *  bir   | 
B8 c4 d4 c4 B4  | f4 e2d2 d12 z4  | d8 g6f2 e4 z4  | \
w:  Bû se   |  gâh    |  Per de_  | 
e8 f6e2 d6z2  | d8 d4 e4 d4 c4  | 
w:  i  â  |  hım  ben  | 
d4 e4 a2g2 f2e2 d2{e}d2 c2B2  | A4 B4 d8 c4 z4  | \
w:  nim  *  ol   |  maz *  dı   | 
B4 c4 dcde d2c2 B6z2  | 
w:  böy *  le   | 
=f4 e2d2 d4 B4 c4 d4  | d2c2 B2^3/4A2 B12 z4  | |


